X:55
T:Market Rasen Quick Step. JGi.055
T:Sandford Quickstep,aka. JGi.055
M:2/4
L:1/8
Q:1/4=90
S:Joshua Gibbons MS,1823,Tealby,Lincs.
R:quick step
O:Tealby,Lincolnshire
Z:VMP/R.Greig, 2009
K:C
G|cc/2d/2 cd|g2ec|dd/f/ ee/g/|dd dG|
cc/d/ ce|g2ec|dd/c/ de|c3:|
|:g|aa/g/ ac’|g2ec|dd/f/ ee/g/|dd dg|
aa/g/ ac’|g2ec|dd/c/ de|c3:|

